icons/fill-new-nature-weather-lightning.svg

<svg xmlns="http://www.w3.org/2000/svg" width="32px" height="32px" viewBox="0 0 32 32" version="1.1">
    <title>fill-new-nature-weather-lightning</title>
    <g id="fill-new-nature-weather-lightning" stroke-width="1" fill-rule="evenodd">
        <path d="M17.4961389,14.1317569 C17.9756564,14.4057668 18.1422531,15.0166215 17.8682431,15.4961389 L14.723,21 L19,21 C19.7294315,21 20.200337,21.7486077 19.9189898,22.3950433 L19.8682431,22.4961389 L15.8682431,29.4961389 C15.5942332,29.9756564 14.9833785,30.1422531 14.5038611,29.8682431 C14.0243436,29.5942332 13.8577469,28.9833785 14.1317569,28.5038611 L17.2512896,23.0446788 L17.276,23 L13,23 C12.2705685,23 11.799663,22.2513923 12.0810102,21.6049567 L12.1317569,21.5038611 L16.1317569,14.5038611 C16.4057668,14.0243436 17.0166215,13.8577469 17.4961389,14.1317569 Z M16,2 C19.7666871,2 22.925368,4.60318411 23.775106,8.10861573 C27.3095758,8.71300727 30,11.7923125 30,15.5 C30,19.6421356 26.6421356,23 22.5,23 L21.8289949,23.000936 C22.5156969,21.0819858 21.0977774,19 19,19 L18.1685224,18.9998289 L19.604705,16.4884595 C20.4267593,15.0498645 19.9269692,13.2173005 18.4884168,12.3952706 C17.0498645,11.5732407 15.2173005,12.0730308 14.3952706,13.5115832 L10.3952706,20.5115832 L10.293564,20.7077187 L10.2471693,20.8068168 L10.1826803,20.9670024 C9.92701597,21.6571244 9.94512287,22.3699955 10.1705332,23.000936 L9.5,23 C5.35786438,23 2,19.6421356 2,15.5 C2,11.7923125 4.69042423,8.71300727 8.22550809,8.10784886 C9.07463205,4.60318411 12.2333129,2 16,2 Z" id="&#24418;&#29366;" />
    </g>
</svg>

<svg xmlns="http://www.w3.org/2000/svg" viewBox="0 0 32 32"><path fill="currentColor" d="M17.496 14.132a1 1 0 0 1 .372 1.364L14.723 21H19a1 1 0 0 1 .919 1.395l-.05.101-4 7a1 1 0 1 1-1.737-.992l3.12-5.46.024-.044H13a1 1 0 0 1-.919-1.395l.05-.101 4-7a1 1 0 0 1 1.365-.372M16 2a8.003 8.003 0 0 1 7.775 6.109A7.5 7.5 0 0 1 22.5 23h-.671c.687-1.918-.731-4-2.829-4h-.831l1.436-2.512a3 3 0 1 0-5.21-2.976l-4 7-.101.196-.047.099-.064.16a2.957 2.957 0 0 0-.012 2.034L9.5 23A7.5 7.5 0 0 1 8.226 8.108 8.002 8.002 0 0 1 16 2"/></svg>
